svgs/sharp-solid/message-exclamation.svg

<svg xmlns="http://www.w3.org/2000/svg" viewBox="0 0 512 512"><!--! Font Awesome Pro 6.6.0 by @fontawesome - https://fontawesome.com License - https://fontawesome.com/license (Commercial License) Copyright 2024 Fonticons, Inc. --><path d="M0 0L512 0l0 416-208 0L160 512l0-96L0 416 0 0zM280 80l-48 0 0 24 0 112 0 24 48 0 0-24 0-112 0-24zM232 272l0 48 48 0 0-48-48 0z"/></svg>

<svg xmlns="http://www.w3.org/2000/svg" viewBox="0 0 512 512"><!--! Font Awesome Pro 6.4.0 by @fontawesome - https://fontawesome.com License - https://fontawesome.com/license (Commercial License) Copyright 2023 Fonticons, Inc. --><path d="M0 0H512V416H304L160 512V416H0V0zM280 80H232v24V216v24h48V216 104 80zM232 272v48h48V272H232z"/></svg>
